images/icon_account.svg

<svg fill="none" height="29" viewBox="0 0 29 29" width="29" xmlns="http://www.w3.org/2000/svg"><path d="m14.5 19.937c4.5 0 8.156-4.473 8.156-9.969s-3.656-9.968-8.156-9.968c-1.1369.0217413-2.2537.303398-3.2649.823397-1.0112.519993-1.89003 1.264543-2.56908 2.176603-1.53939 1.99573-2.35783 4.45381-2.32203 6.974 0 5.491 3.65601 9.963 8.15601 9.963zm0-18.124c3.5 0 6.344 3.659 6.344 8.156s-2.846 8.156-6.344 8.156-6.34397-3.66-6.34497-8.156 2.84497-8.156 6.34497-8.156zm6.344 16.312c-.2404 0-.471.0955-.641.2655s-.2655.4006-.2655.641.0955.471.2655.641.4006.2655.641.2655c1.682.0019 3.2946.6708 4.4839 1.8602 1.1893 1.1893 1.8582 2.8018 1.8601 4.4838-.0005.2401-.0962.4703-.266.6401-.1698.1697-.3999.2654-.64.2659h-23.56203c-.24012-.0005-.47022-.0962-.64001-.2659-.1698-.1698-.26547-.4-.266-.6401.00212-1.6819.67121-3.2943 1.86048-4.4835 1.18927-1.1893 2.80164-1.8584 4.48352-1.8605.24028 0 .47072-.0955.64062-.2654.16991-.1699.26538-.4003.26538-.6406s-.09547-.4707-.26538-.6406c-.1699-.1699-.40034-.2654-.64062-.2654-2.16255.0019-4.23595.8615-5.76538 2.3904-1.529436 1.5289-2.38993223 3.6021-2.39258 5.7646.00079407.7209.287502 1.412.797241 1.9217.509739.5098 1.200869.7965 1.921749.7973h23.56301c.7207-.0011 1.4116-.2879 1.9211-.7976s.7961-1.2007.7969-1.9214c-.0026-2.1623-.8628-4.2353-2.3917-5.7642-1.529-1.529-3.602-2.3892-5.7643-2.3918z" fill="#e8e8e8"/></svg>

<svg width="29" height="29" viewBox="0 0 29 29" fill="none" xmlns="http://www.w3.org/2000/svg">
<path d="M14.5 19.937C19 19.937 22.656 15.464 22.656 9.968C22.656 4.472 19 0 14.5 0C13.3631 0.0217413 12.2463 0.303398 11.2351 0.823397C10.2239 1.34339 9.34507 2.08794 8.66602 3C7.12663 4.99573 6.30819 7.45381 6.34399 9.974C6.34399 15.465 10 19.937 14.5 19.937ZM14.5 1.813C18 1.813 20.844 5.472 20.844 9.969C20.844 14.466 17.998 18.125 14.5 18.125C11.002 18.125 8.15603 14.465 8.15503 9.969C8.15403 5.473 11 1.813 14.5 1.813ZM20.844 18.125C20.6036 18.125 20.373 18.2205 20.203 18.3905C20.033 18.5605 19.9375 18.7911 19.9375 19.0315C19.9375 19.2719 20.033 19.5025 20.203 19.6725C20.373 19.8425 20.6036 19.938 20.844 19.938C22.526 19.9399 24.1386 20.6088 25.3279 21.7982C26.5172 22.9875 27.1861 24.6 27.188 26.282C27.1875 26.5221 27.0918 26.7523 26.922 26.9221C26.7522 27.0918 26.5221 27.1875 26.282 27.188H2.71997C2.47985 27.1875 2.24975 27.0918 2.07996 26.9221C1.91016 26.7523 1.81449 26.5221 1.81396 26.282C1.81608 24.6001 2.48517 22.9877 3.67444 21.7985C4.86371 20.6092 6.47608 19.9401 8.15796 19.938C8.39824 19.938 8.62868 19.8425 8.79858 19.6726C8.96849 19.5027 9.06396 19.2723 9.06396 19.032C9.06396 18.7917 8.96849 18.5613 8.79858 18.3914C8.62868 18.2215 8.39824 18.126 8.15796 18.126C5.99541 18.1279 3.92201 18.9875 2.39258 20.5164C0.863144 22.0453 0.00264777 24.1185 0 26.281C0.000794067 27.0019 0.287502 27.693 0.797241 28.2027C1.30698 28.7125 1.99811 28.9992 2.71899 29H26.282C27.0027 28.9989 27.6936 28.7121 28.2031 28.2024C28.7126 27.6927 28.9992 27.0017 29 26.281C28.9974 24.1187 28.1372 22.0457 26.6083 20.5168C25.0793 18.9878 23.0063 18.1276 20.844 18.125Z" fill="#E8E8E8"/>
</svg>
